usr/share/icons/biglinux-icons-material/22/actions/games-highscores.svg

<svg xmlns="http://www.w3.org/2000/svg" viewBox="0 0 22 22">
  <defs id="defs3051">
    <style type="text/css" id="current-color-scheme">
      .ColorScheme-Text {
        color:#dedede;
      }
      </style>
  </defs>
 <path 
    style="fill:currentColor;fill-opacity:1;stroke:none" 
    d="M 15.978516 3 C 14.465022 3.4377241 12.748442 3.6693848 11 3.671875 C 9.251603 3.6707433 7.5343535 3.4404299 6.0195312 3.0039062 C 6.0416342 3.6933546 6.0966507 4.3493587 6.15625 5 L 6 5 C 6 4 5 4 5 4 L 4 4 L 3 4 L 3 6 L 3.0078125 6 C 3.0072569 6.0337531 3 6.0657146 3 6.0996094 C 3 9.812041 5.506106 12.909543 8.9238281 13.820312 C 9.264788 14.22506 9.624017 14.538585 10 14.736328 L 10 17 L 9 17 L 9 18 L 8 18 L 8 19 L 14 19 L 14 18 L 13 18 L 13 17 L 12 17 L 12 14.736328 C 12.375468 14.53846 12.733706 14.224629 13.074219 13.820312 C 16.492875 12.91016 19 9.812702 19 6.0996094 C 19 6.0657146 18.992743 6.0337531 18.992188 6 L 19 6 L 19 4 L 18 4 L 17 4 L 16.984375 4 C 16.984375 4 16.278145 4.0051 16 4.9570312 L 16 5 L 15.984375 5 L 15.841797 5 C 15.901507 4.3481803 15.956448 3.6907471 15.978516 3 z M 4.09375 5 L 5 5 C 5.26795 6 6 6 6 6 L 6.2636719 6 C 6.5888438 8.6160501 7.2011571 10.849622 8.0136719 12.427734 C 5.6395546 11.310166 4 8.906602 4 6.0996094 C 4 5.7241857 4.0373785 5.3591067 4.09375 5 z M 11 5 L 11.619141 6.3164062 L 13 6.5273438 L 12 7.5527344 L 12.236328 9 L 11 8.3164062 L 9.7636719 9 L 10 7.5527344 L 9 6.5273438 L 10.380859 6.3164062 L 11 5 z M 17 5 L 17.90625 5 C 17.962621 5.3591067 18 5.7241857 18 6.0996094 C 18 8.908793 16.357592 11.313268 13.980469 12.429688 C 14.793939 10.851297 15.408955 8.6180147 15.734375 6 L 16 6 C 16 6 17 6 17 5 z "
    class="ColorScheme-Text"
    />  
</svg>

<svg xmlns="http://www.w3.org/2000/svg" viewBox="0 0 22 22"><path d="M15.979 3c-1.514.438-3.23.67-4.979.672-1.748-.001-3.466-.232-4.98-.668.022.69.077 1.345.136 1.996H6c0-1-1-1-1-1H3v2h.008c0 .034-.008.066-.008.1a7.974 7.974 0 0 0 5.924 7.72c.34.405.7.719 1.076.916V17H9v1H8v1h6v-1h-1v-1h-1v-2.264c.375-.198.734-.511 1.074-.916A7.974 7.974 0 0 0 19 6.1c0-.034-.007-.066-.008-.1H19V4h-2.016s-.706.005-.984.957V5H15.842c.06-.652.114-1.31.137-2zM4.094 5H5c.268 1 1 1 1 1h.264c.325 2.616.937 4.85 1.75 6.428A6.977 6.977 0 0 1 4 6.1c0-.376.037-.74.094-1.1zM11 5l.62 1.316 1.38.211-1 1.026L12.236 9 11 8.316 9.764 9 10 7.553 9 6.527l1.38-.21L11 5zm6 0h.906c.057.36.094.724.094 1.1a6.977 6.977 0 0 1-4.02 6.33c.814-1.579 1.429-3.812 1.754-6.43H16s1 0 1-1z" style="fill:currentColor;fill-opacity:1;stroke:none;color:#dedede"/></svg>
